X:6238
T:St. Anne's Reel
O:england
M:2/4
I:speed 300
I:part 1
K:D
|: Ad | f2fg fedB | A2FG AFAd | BGGG G2FG |BAAA A2 de |
f2fg fedB| A2FG AFAd | BGBd cAce | d2dd d2:|
|:ag fdfafdfa | aggf g2gf | edcB ABce | baa^g a2ag |
fdfafdfa | aggf g2gf | edcB Aceg | fdec d2:|
I:final
FG | A2AB AGFG | F2DE F2D2|G2D2 B,2D2 | GFFF F2FG |
A2AB AGFG| F2DE F2D2 | G2GBA2G2 F2FF F2:|
|:A2 | dAdf dAdf | feed e2ed | cBAG A2A2| GFFF F2A2 |
dAdf dAdf | feed e2ed | cBAG A2GB| AFGE F2:|
